.local/share/icons/Gruvbox-Plus-Dark/actions/24/vmware-component-downloading.svg

<svg xmlns="http://www.w3.org/2000/svg" width="24" height="24" version="1.1">
 <defs>
  <style id="current-color-scheme" type="text/css">
   .ColorScheme-Text { color:#555555; } .ColorScheme-Highlight { color:#4285f4; } .ColorScheme-NeutralText { color:#ff9800; } .ColorScheme-PositiveText { color:#4caf50; } .ColorScheme-NegativeText { color:#f44336; }
  </style>
 </defs>
 <path style="fill:currentColor" class="ColorScheme-Text" d="M 10.203125,5 8.2792969,5.6210938 C 4.2136867,6.9333798 4.08235,6.9800563 4.03125,7.1347656 3.99261,7.2516853 4.1540525,7.4436189 4.8515625,8.115234 5.3288925,8.574842 5.71875,8.985193 5.71875,9.027344 c 0,0.04215 -0.386475,0.438281 -0.859375,0.880859 C 4.386485,10.35078 4,10.755735 4,10.808594 c 0,0.05286 0.054294,0.141109 0.1210938,0.195312 0.06676,0.0542 1.437935,0.524771 3.046875,1.044922 1.6089399,0.520151 2.9568402,0.948099 2.9941402,0.951172 0.03731,0.0031 0.466135,-0.372055 0.953125,-0.833984 L 12,11.324219 l 0.894531,0.849609 c 0.492001,0.46669 0.937335,0.833142 0.990235,0.814453 0.05286,-0.01869 1.391439,-0.446554 2.974609,-0.951172 C 19.589975,11.166765 20,11.007551 20,10.820313 20,10.776423 19.613515,10.370838 19.140625,9.917969 18.667725,9.465099 18.28125,9.062976 18.28125,9.023438 c 0,-0.03954 0.389857,-0.448596 0.867188,-0.908204 C 19.844758,7.444756 20.00725,7.2511705 19.96875,7.1347656 19.93023,7.0182254 19.491018,6.8486278 17.736328,6.2734375 16.534898,5.8796107 15.155575,5.4315708 14.671875,5.2792969 L 13.792969,5.0039062 12.896484,5.8632812 12,6.7207031 11.101563,5.859375 Z m 1.810547,2 2.230469,0.7421875 C 15.470329,8.149746 16.485322,8.493346 16.5,8.507813 c 0.01472,0.01446 -0.968035,0.352439 -2.183594,0.75 C 13.100847,9.655373 12.074586,9.98939 12.035156,10 11.946043,10.023961 7.4594194,8.545799 7.5,8.505859 7.516204,8.489935 8.5402554,8.144377 9.7734375,7.7382812 Z M 12,12.705078 11.802734,12.890625 c -0.251564,0.238619 -0.48648,0.455024 -0.673828,0.619141 -0.09367,0.08206 -0.173593,0.150428 -0.25,0.210937 -0.0382,0.03025 -0.07292,0.05625 -0.128906,0.09375 -0.028,0.01875 -0.05771,0.04106 -0.123047,0.07422 -0.03267,0.01658 -0.07371,0.03653 -0.146484,0.06055 -0.03639,0.01201 -0.08199,0.02422 -0.144531,0.03516 -0.06207,0.01086 -0.25239,0.01176 -0.25586,0.01172 -0.0012,-9.6e-5 -0.1465875,-0.02252 -0.1660155,-0.02734 -0.019429,-0.0048 -0.0314,-0.0085 -0.042969,-0.01172 -0.023138,-0.0064 -0.043308,-0.01205 -0.068359,-0.01953 C 9.7526315,13.922553 9.687673,13.903833 9.607422,13.878923 9.4469196,13.829079 9.2237471,13.758428 8.9511719,13.671875 8.4060215,13.498769 7.6672235,13.260537 6.8613281,13 6.5337971,12.894113 6.3032741,12.813723 6.0039062,12.714844 c 0.0052,1.84717 0.037212,4.332653 0.076172,4.392578 0.039418,0.06062 1.3630086,0.533822 2.9394531,1.052734 h 0.00195 c 1.5765037,0.518882 2.9804687,0.955078 2.9804687,0.955078 v -0.01367 c 0,0 1.456642,-0.447606 3,-0.949218 C 15.164576,18.099489 15.308677,18.051574 15.464844,18 L 15.167969,17.554688 C 14.725127,16.890134 15.201413,16.000171 16,16 v -2 c 0.0028,-0.288748 0.130263,-0.562195 0.349609,-0.75 -0.437021,0.139794 -0.92,0.294204 -1.246093,0.398438 -0.269359,0.0861 -0.491501,0.156652 -0.648438,0.207031 -0.156938,0.05038 -0.343607,0.114102 -0.236328,0.07617 -8.27e-4,2.92e-4 -0.16714,0.04577 -0.234375,0.05273 -0.06724,0.0069 -0.123587,0.0051 -0.171875,0.002 -0.09659,-0.0064 -0.161218,-0.02062 -0.212891,-0.03516 -0.103347,-0.02907 -0.156516,-0.05767 -0.201172,-0.08008 -0.08931,-0.04481 -0.137683,-0.07718 -0.1875,-0.111328 -0.09963,-0.06832 -0.187976,-0.137987 -0.291015,-0.222692 -0.206079,-0.169409 -0.452308,-0.389541 -0.712891,-0.636718 z"/>
 <path style="fill:currentColor" class="ColorScheme-PositiveText" d="m 17,14 v 3 h -1 l 1,1.5 1,1.5 1,-1.5 1,-1.5 h -1 v -3 z"/>
</svg>

<svg width="24" height="24" version="1.1" xmlns="http://www.w3.org/2000/svg">
  <defs>
    <style id="current-color-scheme" type="text/css">.ColorScheme-Text { color:#ebdbb2; } .ColorScheme-Highlight { color:#458588; } .ColorScheme-PositiveText { color:#689d6a; }</style>
  </defs>
  <path class="ColorScheme-PositiveText" d="m17 14v3h-1l2 3 2-3h-1v-3z" fill="currentColor"/>
  <path class="ColorScheme-Text" d="m10.2 5-1.924 0.6133c-4.066 1.312-4.197 1.361-4.248 1.516-0.03864 0.1169 0.1228 0.3089 0.8203 0.9805 0.4773 0.4596 0.8672 0.87 0.8672 0.9121 0 0.04215-0.3865 0.4383-0.8594 0.8809s-0.8594 0.8475-0.8594 0.9004c0 0.05286 0.05428 0.1411 0.1211 0.1953 0.06676 0.0542 1.438 0.5247 3.047 1.045 1.609 0.5202 2.994 0.9512 2.994 0.9512l1.838-1.676 1.885 1.664s0.6731-0.218 2.975-0.9512c2.731-0.8703 3.141-1.03 3.141-1.217 0-0.04389-0.3865-0.4495-0.8594-0.9023-0.4729-0.4529-0.8594-0.855-0.8594-0.8945 0-0.03954 0.3899-0.4486 0.8672-0.9082 0.6963-0.6705 0.8588-0.8641 0.8203-0.9805-0.03852-0.1165-0.4781-0.2861-2.232-0.8613-1.201-0.3938-2.58-0.8419-3.062-0.9941l-0.8789-0.2695-1.793 1.711zm1.811 1.992 4.486 1.508-4.5 1.492-4.5-1.494zm-0.01367 5.705s-0.579 0.5383-0.8711 0.8047c-0.4486 0.393-0.6099 0.4913-1.049 0.4863-0.1084-0.0089-0.2608-0.05138-0.4727-0.1172-0.8984-0.2789-1.842-0.582-3.604-1.164 0.0052 1.847 0.00205 4.245 0.07617 4.395 0.00897-0.0012 5.92 1.898 5.92 1.898l3.459-1.104c-1.051-1.184-0.0098-2.029 0.541-1.982v-1.953c0.01023-0.2767 0.1372-0.5362 0.3496-0.7168-0.7124 0.2219-1.422 0.4513-2.133 0.6797-0.01865 0.0066-0.1997 0.06829-0.4063 0.05469-0.3146-0.02072-0.5375-0.1572-0.8926-0.4492-0.1761-0.1447-0.918-0.832-0.918-0.832z" fill="currentColor"/>
</svg>
